tools/download-figma-icons/icons/outlined-large/snowflake.svg

<svg width="64" height="64" viewBox="0 0 64 64" fill="none" xmlns="http://www.w3.org/2000/svg">
<path d="M59.25 46L56.47 44.4L58.81 43.25C59.1667 43.0736 59.4388 42.7628 59.5663 42.3858C59.6938 42.0089 59.6664 41.5967 59.49 41.24C59.3137 40.8833 59.0028 40.6112 58.6259 40.4837C58.2489 40.3562 57.8367 40.3836 57.48 40.56L53.34 42.56L50.34 40.86L56 38.1C56.1766 38.0127 56.3343 37.8914 56.4641 37.7431C56.5939 37.5949 56.6932 37.4225 56.7563 37.2358C56.8194 37.0492 56.8452 36.8519 56.8321 36.6553C56.819 36.4587 56.7673 36.2666 56.68 36.09C56.5927 35.9134 56.4714 35.7557 56.3232 35.6259C56.1749 35.4961 56.0025 35.3969 55.8159 35.3337C55.6292 35.2706 55.4319 35.2448 55.2353 35.2579C55.0387 35.271 54.8466 35.3227 54.67 35.41L47.29 39.05L44.34 37.35L46.68 36.2C47.0367 36.0236 47.3088 35.7128 47.4363 35.3358C47.5638 34.9589 47.5364 34.5467 47.36 34.19C47.1837 33.8333 46.8728 33.5612 46.4959 33.4337C46.1189 33.3062 45.7067 33.3336 45.35 33.51L41.81 35.25V28.75L45.35 30.49C45.554 30.5956 45.7804 30.6504 46.01 30.65C46.3509 30.6537 46.683 30.5412 46.9514 30.3309C47.2198 30.1207 47.4085 29.8253 47.4866 29.4934C47.5646 29.1615 47.5272 28.8129 47.3806 28.5051C47.234 28.1973 46.9869 27.9486 46.68 27.8L44.34 26.65L47.26 25L54.64 28.64C54.8471 28.7468 55.077 28.8017 55.31 28.8C55.6759 28.8444 56.0454 28.7526 56.3479 28.542C56.6504 28.3314 56.8648 28.0167 56.9501 27.6581C57.0354 27.2995 56.9857 26.9221 56.8105 26.5978C56.6353 26.2735 56.3467 26.0251 56 25.9L50.42 23.15L53.42 21.45L57.56 23.45C57.764 23.5556 57.9904 23.6104 58.22 23.61C58.5609 23.6137 58.893 23.5012 59.1614 23.2909C59.4298 23.0807 59.6185 22.7853 59.6966 22.4534C59.7746 22.1215 59.7372 21.7729 59.5906 21.4651C59.444 21.1573 59.1969 20.9086 58.89 20.76L56.55 19.61L59.33 18.01C59.5007 17.9109 59.6503 17.7791 59.77 17.6221C59.8898 17.4652 59.9775 17.2862 60.0281 17.0954C60.0787 16.9045 60.0913 16.7056 60.065 16.51C60.0387 16.3143 59.9742 16.1257 59.875 15.955C59.7759 15.7843 59.6441 15.6348 59.4871 15.515C59.3302 15.3952 59.1512 15.3075 58.9604 15.2569C58.7696 15.2063 58.5706 15.1938 58.375 15.22C58.1793 15.2463 57.9907 15.3109 57.82 15.41L55 17.05L55.16 14.45C55.1852 14.0522 55.0513 13.6606 54.7879 13.3615C54.5244 13.0624 54.1528 12.8802 53.755 12.855C53.3572 12.8298 52.9657 12.9637 52.6665 13.2272C52.3674 13.4907 52.1852 13.8622 52.16 14.26L51.86 18.85L48.91 20.55L49.32 14.35C49.3076 13.9749 49.1559 13.6178 48.8946 13.3484C48.6332 13.079 48.2809 12.9166 47.9063 12.8929C47.5317 12.8692 47.1617 12.9858 46.8684 13.2201C46.5752 13.4543 46.3796 13.7894 46.32 14.16L45.79 22.35L42.79 24.05L42.96 21.45C42.9852 21.0522 42.8513 20.6606 42.5879 20.3615C42.3244 20.0624 41.9528 19.8802 41.555 19.855C41.1572 19.8298 40.7657 19.9637 40.4665 20.2272C40.1674 20.4907 39.9852 20.8622 39.96 21.26L39.7 25.2L34.04 21.94L37.34 19.75C37.5042 19.6403 37.6451 19.4994 37.7548 19.3353C37.8645 19.1712 37.9408 18.9871 37.9793 18.7934C38.0179 18.5998 38.0179 18.4005 37.9794 18.2069C37.9409 18.0133 37.8647 17.8292 37.755 17.665C37.6454 17.5008 37.5045 17.3599 37.3403 17.2502C37.1762 17.1405 36.9921 17.0642 36.7985 17.0257C36.6049 16.9871 36.4056 16.9871 36.2119 17.0256C36.0183 17.0641 35.8342 17.1403 35.67 17.25L33.5 18.7V15.3L40.36 10.75C40.6915 10.5285 40.9215 10.1845 40.9993 9.79345C41.0772 9.40244 40.9965 8.99652 40.775 8.665C40.5536 8.33348 40.2095 8.10351 39.8185 8.02568C39.4275 7.94785 39.0215 8.02854 38.69 8.25L33.5 11.7V8.3L37.35 5.75C37.5142 5.64035 37.6551 5.49943 37.7648 5.33531C37.8745 5.17118 37.9508 4.98706 37.9893 4.79345C38.0279 4.59984 38.0279 4.40053 37.9894 4.20691C37.9509 4.0133 37.8747 3.82915 37.765 3.665C37.6554 3.50085 37.5145 3.3599 37.3503 3.25021C37.1862 3.14051 37.0021 3.06422 36.8085 3.02568C36.6149 2.98715 36.4156 2.98712 36.2219 3.02561C36.0283 3.0641 35.8442 3.14035 35.68 3.25L33.5 4.7V1.5C33.5 1.10218 33.342 0.720644 33.0607 0.43934C32.7794 0.158035 32.3978 0 32 0C31.6022 0 31.2207 0.158035 30.9394 0.43934C30.6581 0.720644 30.5 1.10218 30.5 1.5V4.7L28.32 3.25C28.1559 3.14035 27.9717 3.0641 27.7781 3.02561C27.5845 2.98712 27.3852 2.98715 27.1916 3.02568C26.998 3.06422 26.8138 3.14051 26.6497 3.25021C26.4856 3.3599 26.3447 3.50085 26.235 3.665C26.1254 3.82915 26.0491 4.0133 26.0106 4.20691C25.9721 4.40053 25.9722 4.59984 26.0107 4.79345C26.0492 4.98706 26.1255 5.17118 26.2352 5.33531C26.3449 5.49943 26.4859 5.64035 26.65 5.75L30.5 8.3V11.7L25.31 8.25C24.9785 8.02854 24.5726 7.94785 24.1816 8.02568C23.7906 8.10351 23.4465 8.33348 23.225 8.665C23.0036 8.99652 22.9229 9.40244 23.0007 9.79345C23.0785 10.1845 23.3085 10.5285 23.64 10.75L30.5 15.3V18.7L28.32 17.25C28.1559 17.1403 27.9717 17.0641 27.7781 17.0256C27.5845 16.9871 27.3852 16.9871 27.1916 17.0257C26.998 17.0642 26.8138 17.1405 26.6497 17.2502C26.4856 17.3599 26.3447 17.5008 26.235 17.665C26.1254 17.8292 26.0491 18.0133 26.0106 18.2069C25.9721 18.4005 25.9722 18.5998 26.0107 18.7934C26.0492 18.9871 26.1255 19.1712 26.2352 19.3353C26.3449 19.4994 26.4859 19.6403 26.65 19.75L30 21.94L24.29 25.2L24 21.26C23.9748 20.8622 23.7926 20.4907 23.4935 20.2272C23.1944 19.9637 22.8028 19.8298 22.405 19.855C22.0072 19.8802 21.6357 20.0624 21.3722 20.3615C21.1087 20.6606 20.9748 21.0522 21 21.45L21.17 24.05L18.22 22.35L17.69 14.16C17.6304 13.7894 17.4349 13.4543 17.1416 13.2201C16.8483 12.9858 16.4783 12.8692 16.1038 12.8929C15.7292 12.9166 15.3768 13.079 15.1155 13.3484C14.8541 13.6178 14.7024 13.9749 14.69 14.35L15.1 20.55L12.15 18.85L11.85 14.26C11.8248 13.8622 11.6426 13.4907 11.3435 13.2272C11.0444 12.9637 10.6528 12.8298 10.255 12.855C9.85719 12.8802 9.48567 13.0624 9.22218 13.3615C8.95869 13.6606 8.82482 14.0522 8.85002 14.45L9.00002 17.05L6.23002 15.45C6.0593 15.3509 5.87072 15.2863 5.67506 15.26C5.47939 15.2338 5.28047 15.2463 5.08964 15.2969C4.89882 15.3475 4.71983 15.4352 4.5629 15.555C4.40597 15.6748 4.27417 15.8243 4.17502 15.995C4.07587 16.1657 4.01132 16.3543 3.98505 16.55C3.95878 16.7456 3.97131 16.9445 4.02191 17.1354C4.07252 17.3262 4.16022 17.5052 4.28 17.6621C4.39978 17.819 4.5493 17.9509 4.72002 18.05L7.50002 19.65L5.19002 20.8C4.88315 20.9486 4.63604 21.1973 4.48943 21.5051C4.34282 21.8129 4.30545 22.1615 4.38348 22.4934C4.4615 22.8253 4.65027 23.1207 4.91867 23.3309C5.18707 23.5412 5.51909 23.6537 5.86002 23.65C6.08967 23.6504 6.31606 23.5956 6.52002 23.49L10.66 21.49L13.61 23.19L8.00002 25.9C7.69396 26.0482 7.44735 26.296 7.30063 26.6028C7.15391 26.9096 7.11578 27.2571 7.1925 27.5884C7.26922 27.9197 7.45623 28.2151 7.72288 28.4262C7.98952 28.6372 8.31996 28.7514 8.66002 28.75C8.89301 28.7517 9.12292 28.6968 9.33002 28.59L16.74 25L19.74 26.7L17.35 27.8C17.0447 27.9479 16.7986 28.1948 16.6517 28.5006C16.5049 28.8063 16.466 29.1528 16.5414 29.4835C16.6168 29.8143 16.8021 30.1096 17.067 30.3215C17.3319 30.5333 17.6608 30.6491 18 30.65C18.2297 30.6504 18.4561 30.5956 18.66 30.49L22.2 28.75V35.25L18.66 33.51C18.3033 33.3336 17.8911 33.3062 17.5142 33.4337C17.1372 33.5612 16.8264 33.8333 16.65 34.19C16.4736 34.5467 16.4462 34.9589 16.5737 35.3358C16.7013 35.7128 16.9733 36.0236 17.33 36.2L19.67 37.35L16.67 39.05L9.36002 35.41C9.18339 35.3207 8.9909 35.2671 8.79355 35.2522C8.59619 35.2373 8.39783 35.2614 8.20979 35.3231C8.02175 35.3849 7.84772 35.483 7.69762 35.6121C7.54753 35.7411 7.42432 35.8984 7.33502 36.075C7.24572 36.2516 7.19208 36.4441 7.17718 36.6415C7.16227 36.8388 7.18638 37.0372 7.24813 37.2252C7.30988 37.4133 7.40806 37.5873 7.53707 37.7374C7.66608 37.8875 7.82339 38.0107 8.00002 38.1L13.58 40.85L10.63 42.55L6.49002 40.55C6.31325 40.4195 6.10999 40.3295 5.8946 40.2863C5.67921 40.243 5.45695 40.2476 5.24353 40.2997C5.03011 40.3518 4.83074 40.4502 4.65952 40.5878C4.4883 40.7255 4.3494 40.8991 4.25264 41.0963C4.15588 41.2935 4.10363 41.5096 4.09958 41.7293C4.09553 41.9489 4.13977 42.1668 4.22919 42.3674C4.3186 42.5681 4.451 42.7467 4.61703 42.8905C4.78306 43.0344 4.97867 43.1401 5.19002 43.2L7.53002 44.35L4.75002 46C4.46281 46.1653 4.23843 46.4211 4.11191 46.7273C3.98538 47.0336 3.96384 47.3732 4.05065 47.693C4.13745 48.0128 4.32772 48.2948 4.59173 48.4951C4.85575 48.6954 5.17865 48.8026 5.51002 48.8C5.77336 48.8012 6.03226 48.7322 6.26002 48.6L9.00002 47L8.84002 49.6C8.82646 49.7966 8.85202 49.9938 8.91522 50.1805C8.97842 50.3671 9.078 50.5393 9.2082 50.6872C9.3384 50.835 9.49664 50.9556 9.67375 51.0419C9.85086 51.1282 10.0433 51.1786 10.24 51.19H10.34C10.7227 51.1907 11.0912 51.0451 11.3701 50.7829C11.6489 50.5208 11.8171 50.162 11.84 49.78L12.14 45.19L15.09 43.49L14.68 49.69C14.6678 49.8871 14.6947 50.0846 14.759 50.2713C14.8233 50.4579 14.9239 50.63 15.0549 50.7778C15.1859 50.9255 15.3447 51.0459 15.5224 51.1321C15.7 51.2183 15.8929 51.2685 16.09 51.28H16.19C16.572 51.2783 16.9392 51.1319 17.2175 50.8702C17.4959 50.6086 17.6647 50.2512 17.69 49.87L18.22 41.68L21.2 40L21 42.55C20.9865 42.7466 21.012 42.9438 21.0752 43.1305C21.1384 43.3171 21.238 43.4893 21.3682 43.6372C21.4984 43.785 21.6566 43.9056 21.8337 43.9919C22.0109 44.0782 22.2033 44.1286 22.4 44.14H22.5C22.8811 44.1408 23.2482 43.9966 23.5268 43.7366C23.8054 43.4766 23.9746 43.1202 24 42.74L24.26 38.8L30 42.06L26.7 44.25C26.3685 44.4715 26.1385 44.8155 26.0607 45.2066C25.9829 45.5976 26.0636 46.0035 26.285 46.335C26.5065 46.6665 26.8506 46.8965 27.2416 46.9743C27.6326 47.0521 28.0385 46.9715 28.37 46.75L30.5 45.3V48.7L23.64 53.25C23.3085 53.4715 23.0785 53.8155 23.0007 54.2066C22.9229 54.5976 23.0036 55.0035 23.225 55.335C23.4465 55.6665 23.7906 55.8965 24.1816 55.9743C24.5726 56.0521 24.9785 55.9715 25.31 55.75L30.5 52.3V55.7L26.65 58.25C26.4859 58.3597 26.3449 58.5006 26.2352 58.6647C26.1255 58.8288 26.0492 59.0129 26.0107 59.2066C25.9722 59.4002 25.9721 59.5995 26.0106 59.7931C26.0491 59.9867 26.1254 60.1708 26.235 60.335C26.3447 60.4992 26.4856 60.6401 26.6497 60.7498C26.8138 60.8595 26.998 60.9358 27.1916 60.9743C27.3852 61.0129 27.5845 61.0129 27.7781 60.9744C27.9717 60.9359 28.1559 60.8597 28.32 60.75L30.5 59.3V62.5C30.5 62.8978 30.6581 63.2794 30.9394 63.5607C31.2207 63.842 31.6022 64 32 64C32.3978 64 32.7794 63.842 33.0607 63.5607C33.342 63.2794 33.5 62.8978 33.5 62.5V59.3L35.68 60.75C35.9266 60.9121 36.215 60.999 36.51 61C36.8332 61.0023 37.1485 60.9003 37.4089 60.7089C37.6694 60.5176 37.8611 60.2473 37.9555 59.9382C38.0499 59.6292 38.042 59.2979 37.9329 58.9937C37.8238 58.6895 37.6193 58.4286 37.35 58.25L33.5 55.7V52.3L38.69 55.75C38.9366 55.9121 39.225 55.999 39.52 56C39.8432 56.0023 40.1585 55.9003 40.4189 55.7089C40.6794 55.5176 40.8711 55.2473 40.9655 54.9382C41.0599 54.6292 41.052 54.2979 40.9429 53.9937C40.8338 53.6895 40.6293 53.4286 40.36 53.25L33.5 48.7V45.3L35.68 46.75C35.9266 46.9121 36.215 46.999 36.51 47C36.8332 47.0023 37.1485 46.9003 37.4089 46.7089C37.6694 46.5176 37.8611 46.2473 37.9555 45.9382C38.0499 45.6292 38.042 45.2979 37.9329 44.9937C37.8238 44.6895 37.6193 44.4286 37.35 44.25L34.05 42.06L39.71 38.8L40 42.74C40.023 43.122 40.1911 43.4808 40.47 43.7429C40.7488 44.0051 41.1173 44.1507 41.5 44.15H41.6C41.7976 44.1386 41.991 44.088 42.1688 44.001C42.3466 43.9141 42.5053 43.7926 42.6356 43.6436C42.7659 43.4947 42.8653 43.3213 42.9279 43.1335C42.9904 42.9457 43.015 42.7474 43 42.55L42.8 40L45.8 41.7L46.33 49.89C46.3553 50.2712 46.5241 50.6286 46.8025 50.8902C47.0808 51.1519 47.448 51.2983 47.83 51.3H47.93C48.1271 51.2885 48.32 51.2383 48.4977 51.1521C48.6753 51.0659 48.8342 50.9455 48.9652 50.7978C49.0962 50.65 49.1967 50.4779 49.261 50.2913C49.3254 50.1046 49.3522 49.9071 49.34 49.71L48.93 43.51L51.88 45.21L52.18 49.8C52.203 50.182 52.3711 50.5408 52.65 50.8029C52.9288 51.0651 53.2973 51.2107 53.68 51.21H53.78C53.9767 51.1986 54.1692 51.1482 54.3463 51.0619C54.5234 50.9756 54.6816 50.855 54.8118 50.7072C54.942 50.5593 55.0416 50.3871 55.1048 50.2005C55.168 50.0138 55.1936 49.8166 55.18 49.62L55 47L57.77 48.6C57.9978 48.7322 58.2567 48.8012 58.52 48.8C58.8514 48.8026 59.1743 48.6954 59.4383 48.4951C59.7023 48.2948 59.8926 48.0128 59.9794 47.693C60.0662 47.3732 60.0447 47.0336 59.9181 46.7273C59.7916 46.4211 59.5672 46.1653 59.28 46H59.25ZM32 39.77L25.23 35.88V28.12L32 24.23L38.77 28.12V35.88L32 39.77Z" fill="black"/>
</svg>

<svg xmlns="http://www.w3.org/2000/svg" width="64" height="64" fill="none" viewBox="0 0 64 64"><path fill="currentColor" d="m59.25 46-2.78-1.6 2.34-1.15a1.5 1.5 0 1 0-1.33-2.69l-4.14 2-3-1.7L56 38.1a1.5 1.5 0 0 0-1.33-2.69l-7.38 3.64-2.95-1.7 2.34-1.15a1.5 1.5 0 1 0-1.33-2.69l-3.54 1.74v-6.5l3.54 1.74a1.5 1.5 0 1 0 1.33-2.69l-2.34-1.15L47.26 25l7.38 3.64c.207.107.437.162.67.16a1.5 1.5 0 0 0 .69-2.9l-5.58-2.75 3-1.7 4.14 2a1.5 1.5 0 1 0 1.33-2.69l-2.34-1.15 2.78-1.6a1.5 1.5 0 0 0 .545-2.055 1.5 1.5 0 0 0-2.055-.545L55 17.05l.16-2.6a1.503 1.503 0 0 0-3-.19l-.3 4.59-2.95 1.7.41-6.2a1.51 1.51 0 0 0-3-.19l-.53 8.19-3 1.7.17-2.6a1.503 1.503 0 0 0-3-.19l-.26 3.94-5.66-3.26 3.3-2.19a1.504 1.504 0 0 0-1.67-2.5L33.5 18.7v-3.4l6.86-4.55a1.503 1.503 0 0 0-1.67-2.5L33.5 11.7V8.3l3.85-2.55a1.503 1.503 0 1 0-1.67-2.5L33.5 4.7V1.5a1.5 1.5 0 1 0-3 0v3.2l-2.18-1.45a1.503 1.503 0 1 0-1.67 2.5L30.5 8.3v3.4l-5.19-3.45a1.503 1.503 0 1 0-1.67 2.5l6.86 4.55v3.4l-2.18-1.45a1.502 1.502 0 1 0-1.67 2.5L30 21.94l-5.71 3.26-.29-3.94a1.503 1.503 0 0 0-3 .19l.17 2.6-2.95-1.7-.53-8.19a1.51 1.51 0 0 0-3 .19l.41 6.2-2.95-1.7-.3-4.59a1.503 1.503 0 0 0-3 .19l.15 2.6-2.77-1.6a1.505 1.505 0 0 0-2.208 1.685 1.5 1.5 0 0 0 .698.915l2.78 1.6-2.31 1.15a1.5 1.5 0 1 0 1.33 2.69l4.14-2 2.95 1.7L8 25.9a1.5 1.5 0 0 0 .66 2.85c.233.002.463-.053.67-.16L16.74 25l3 1.7-2.39 1.1a1.5 1.5 0 0 0 .65 2.85c.23 0 .456-.054.66-.16l3.54-1.74v6.5l-3.54-1.74a1.5 1.5 0 1 0-1.33 2.69l2.34 1.15-3 1.7-7.31-3.64A1.507 1.507 0 0 0 8 38.1l5.58 2.75-2.95 1.7-4.14-2a1.499 1.499 0 0 0-2.26 1.817 1.5 1.5 0 0 0 .96.833l2.34 1.15L4.75 46a1.5 1.5 0 0 0 .76 2.8 1.5 1.5 0 0 0 .75-.2L9 47l-.16 2.6a1.49 1.49 0 0 0 1.4 1.59h.1a1.5 1.5 0 0 0 1.5-1.41l.3-4.59 2.95-1.7-.41 6.2a1.5 1.5 0 0 0 1.41 1.59h.1a1.51 1.51 0 0 0 1.5-1.41l.53-8.19L21.2 40l-.2 2.55a1.49 1.49 0 0 0 1.4 1.59h.1a1.5 1.5 0 0 0 1.5-1.4l.26-3.94L30 42.06l-3.3 2.19a1.503 1.503 0 0 0 1.67 2.5l2.13-1.45v3.4l-6.86 4.55a1.503 1.503 0 0 0 1.67 2.5l5.19-3.45v3.4l-3.85 2.55a1.505 1.505 0 0 0 0 2.5 1.5 1.5 0 0 0 1.67 0l2.18-1.45v3.2a1.5 1.5 0 0 0 3 0v-3.2l2.18 1.45a1.52 1.52 0 0 0 1.729-.041 1.5 1.5 0 0 0-.059-2.459L33.5 55.7v-3.4l5.19 3.45a1.52 1.52 0 0 0 1.729-.041 1.5 1.5 0 0 0-.059-2.459L33.5 48.7v-3.4l2.18 1.45a1.52 1.52 0 0 0 1.729-.041 1.5 1.5 0 0 0-.059-2.459l-3.3-2.19 5.66-3.26.29 3.94a1.5 1.5 0 0 0 1.5 1.41h.1a1.49 1.49 0 0 0 1.4-1.6L42.8 40l3 1.7.53 8.19a1.51 1.51 0 0 0 1.5 1.41h.1a1.5 1.5 0 0 0 1.41-1.59l-.41-6.2 2.95 1.7.3 4.59a1.5 1.5 0 0 0 1.5 1.41h.1a1.49 1.49 0 0 0 1.4-1.59L55 47l2.77 1.6c.228.132.487.201.75.2a1.5 1.5 0 0 0 .76-2.8zM32 39.77l-6.77-3.89v-7.76L32 24.23l6.77 3.89v7.76z"/></svg>
